X:1
T:Buxtehude - Aria:  La Capricciosa in G Minor.
%%score { ( 1 2 ) | ( 3 4 5 ) }
L:1/8
Q:1/4=100
M:4/4
K:G
V:1 treble nm="Harpsichord" snm="Hch."
V:2 treble 
V:3 bass 
V:4 bass 
V:5 bass 
V:1
"^Partita 10"!f! z/ d3/2 z/ g3/2 z/ e3/2 z/ c3/2 | z/ d3/2 z/ c3/2 z/ B3/2 z z/ G/ | %2
 z/ B3/2 z/ d3/2 z z/ G/ z/ AG/ | z z/ G/ z z/ F/ z z/ D/ z/ G3/2 :: %4
 z z/ B/ z z/ B/ z z/ c/ z z/ c/ | z/ A3/2 z/ c3/2 z/ B3/2 z/ G3/2 | %6
 z/ B3/2 z/ d3/2 z/ c3/2 z z/ B/ | z/ MAG/ GF z/ G/ z/ MG/ G2 :| %8
V:2
 z z/ B/ z z/ d/ z z/ B/ z z/ G/ | z z/ G/- G>F z z/ G/ z/ D3/2 | z z/ G/ z z/ =F/ z/ E3/2- E2 | %3
 z/ D3/2 z/ D3/2 z/ B,3/2 z z/ B,/ :: z/ D3/2 z/ D3/2 z/ C3/2 z/ G3/2 | %5
 z z/ E/ z z/ A/ z z/ D/ z z/ D/ | z z/ G/ z z/ A/ z z/ F/ z/ G3/2 | x6 D2 :| %8
V:3
 z B,2 B, CG, x2 | z B, z A, z G, z B, | z G, z G, z C- CB, | z B, z A, z G, z G, :: %4
 z G, z F, z G, z G, | z G, z F, z G, z B, | z D z A, z C z D | z E D>C z PB,- B,2 :| %8
V:4
 G,4 z2 A,E, | D,2 D,2 G,,2 G,,2 | G,,2 B,,2 C,2 C,2 | D,2 D,2 G,,2 G,,2 :: G,,2 D,,2 E,,2 B,,2 | %5
 C,2 A,,2 G,,2 G,,2 | G,2 F,2 A,2 B,2 | C2 z/ D,3/2 z2 G,,2 :| %8
V:5
 z2 D2 x4 | x8 | x8 | x8 :: x8 | x8 | x8 | x4 G,4 :| %8

